X:1
T:Tribeca, 87.87.85.85
T:Tribeca, 87.87.85.85
T:W. J. Baltzell, 1902
T:Public Domain Courtesy of the Cyber Hymnal™
C:W. J. Baltzell, 1902
Z:Public Domain
Z:Courtesy of the Cyber Hymnal™
%%score ( 1 2 ) ( 3 4 )
L:1/8
Q:1/4=79
M:4/4
K:C
V:1 treble 
V:2 treble 
V:3 bass 
V:4 bass 
V:1
 [EG][EG] | [FA]>[FA] [EG][^D^F] [EG][CE][=D=F][^D^F] | [EG][Ec] [^DB]>[DA] [EG]2 [EG][EG] | %3
 [FA]>[Fc] [^DB][DA] [EA][EG][Ec][Ge] | [^Fe][Fd][Fc][Fe] !fermata![Gd]2 GG | cGFE DC[CE][EG] | %6
 [FA]2 [FA]2 [EG]2 [Gc][Gc] | [Ad][Ac][GB][FA] [EA][EG][FA][Fc] | [Fc]2 [FB]2 !fermata![Ec]2 |] %9
V:2
 x2 | x8 | x8 | x8 | x6 GG | cGFE DC x2 | x8 | x8 | x6 |] %9
V:3
 [C,C][C,C] | [C,C]>[C,C] [C,C][C,C] [C,C][C,G,][C,B,][C,A,] | %2
 [C,G,][C,G,] [C,^F,]>[C,F,] [C,G,]2 [C,C][C,C] | [F,C]>[F,A,] [^F,B,][F,C] [G,C][G,C]G,[G,C] | %4
 [A,C][A,D][A,E][D,C] !fermata![G,B,]2 G,G, | CG,F,E, D,C,[C,G,][C,C] | %6
 [F,C]2 [F,C]2 [C,C]2 [E,C][E,C] | [F,A,][F,A,] [G,B,] ([A,C]/[B,D]/) C[C,C][F,C][A,C] | %8
 [G,C]2 G,2 !fermata![C,G,]2 |] %9
V:4
 x2 | x8 | x8 | x6 G, x | x6 G,G, | CG,F,E, D,C, x2 | x8 | x4 C x3 | x2 G,2 x2 |] %9

